;FLAVOR:Marlin
;TIME:7650
;Filament used: 4.88981m
;Layer height: 0.15
;MINX:81.29
;MINY:93.8
;MINZ:0.3
;MAXX:161.709
;MAXY:187.491
;MAXZ:50.7
;Generated with Cura_SteamEngine 4.6.2
M140 S60
M105
M190 S60
M104 S200
M105
M109 S200
M82 ;absolute extrusion mode
; Ender 3 Custom Start G-code
G92 E0 ; Reset Extruder
G28 ; Home all axes
G1 Z2.0 F3000 ; Move Z Axis up little to prevent scratching of Heat Bed
G1 X0.1 Y20 Z0.3 F5000.0 ; Move to start position
G1 X0.1 Y200.0 Z0.3 F1500.0 E15 ; Draw the first line
G1 X0.4 Y200.0 Z0.3 F5000.0 ; Move to side a little
G1 X0.4 Y20 Z0.3 F1500.0 E30 ; Draw the second line
G92 E0 ; Reset Extruder
G1 Z2.0 F3000 ; Move Z Axis up little to prevent scratching of Heat Bed
G1 X5 Y20 Z0.3 F5000.0 ; Move over to prevent blob squish
G92 E0
G92 E0
G1 F1500 E-6.5
;LAYER_COUNT:337
;LAYER:0
M107
G0 F6000 X133.372 Y94.613 Z0.3
;TYPE:SKIRT
G1 F1500 E0
G1 F1200 X133.858 Y94.631 E0.02426
G1 X134.2 Y94.652 E0.04136
G1 X134.859 Y94.714 E0.07438
G1 X135.592 Y94.807 E0.11124
G1 X136.302 Y94.923 E0.14714
G1 X136.618 Y94.986 E0.16321
G1 X137.279 Y95.141 E0.19708
G1 X137.572 Y95.22 E0.21222
G1 X138.134 Y95.389 E0.2415
G1 X138.805 Y95.612 E0.27678
G1 X139.763 Y95.985 E0.32807
G1 X140.396 Y96.269 E0.36268
G1 X141.28 Y96.718 E0.41215
G1 X141.919 Y97.083 E0.44886
G1 X142.594 Y97.504 E0.48855
G1 X142.85 Y97.678 E0.50399
G1 X143.299 Y98.001 E0.53159
G1 X143.526 Y98.174 E0.54583
G1 X144.032 Y98.587 E0.57841
G1 X144.603 Y99.083 E0.61615
G1 X145.126 Y99.571 E0.65183
G1 X145.356 Y99.801 E0.66806
G1 X145.803 Y100.276 E0.7006
G1 X145.993 Y100.492 E0.71495
G1 X146.399 Y100.985 E0.74682
G1 X146.831 Y101.543 E0.78202
G1 X147.403 Y102.361 E0.83182
G1 X147.807 Y103.004 E0.86971
G1 X148.188 Y103.664 E0.90773
G1 X148.327 Y103.927 E0.92257
G1 X148.603 Y104.491 E0.9539
G1 X148.721 Y104.752 E0.96819
G1 X148.952 Y105.304 E0.99804
G1 X149.226 Y106.019 E1.03624
G1 X149.465 Y106.72 E1.07319
G1 X149.555 Y107.018 E1.08872
G1 X149.712 Y107.599 E1.11875
G1 X149.786 Y107.909 E1.13465
G1 X149.924 Y108.586 E1.16912
G1 X150.042 Y109.288 E1.20463
G1 X150.141 Y110.051 E1.24302
G1 X150.175 Y110.423 E1.26165
G1 X150.211 Y110.994 E1.2902
G1 X150.239 Y111.883 E1.33457
G1 X150.242 Y112.2 E1.35039
G1 X150.241 Y116.959 E1.58781
G1 X150.201 Y119.406 E1.70991
G1 X150.207 Y121.99 E1.83883
G1 X150.284 Y124.521 E1.96516
G1 X150.431 Y127.027 E2.0904
G1 X150.656 Y129.609 E2.2197
G1 X150.941 Y132.079 E2.34375
G1 X151.312 Y134.651 E2.4734
G1 X151.736 Y137.091 E2.59695
G1 X152.248 Y139.617 E2.72554
G1 X152.82 Y142.081 E2.85174
G1 X153.465 Y144.539 E2.97852
G1 X154.18 Y146.979 E3.10537
G1 X154.966 Y149.407 E3.23269
G1 X155.81 Y151.782 E3.35844
G1 X156.732 Y154.162 E3.48578
G1 X157.703 Y156.473 E3.61084
G1 X158.574 Y158.474 E3.71972
G1 X158.7 Y158.776 E3.73604
G1 X158.922 Y159.334 E3.766
G1 X159.062 Y159.707 E3.78588
G1 X159.297 Y160.382 E3.82154
G1 X159.437 Y160.812 E3.8441
G1 X159.725 Y161.742 E3.89267
G1 X159.815 Y162.061 E3.90921
G1 X159.92 Y162.464 E3.92998
G1 X160.108 Y163.252 E3.9704
G1 X160.206 Y163.713 E3.99391
G1 X160.347 Y164.462 E4.03194
G1 X160.484 Y165.274 E4.07302
G1 X160.637 Y166.265 E4.12305
G1 X160.69 Y166.665 E4.14318
G1 X160.784 Y167.489 E4.18455
G1 X160.831 Y168.02 E4.21115
G1 X160.851 Y168.346 E4.22744
G1 X160.868 Y168.757 E4.24797
G1 X160.909 Y170.824 E4.35111
G1 X160.909 Y175.754 E4.59707
G1 X160.899 Y176.496 E4.63409
G1 X160.847 Y177.398 E4.67917
G1 X160.715 Y178.292 E4.72425
G1 X160.505 Y179.17 E4.76929
G1 X160.218 Y180.026 E4.81433
G1 X159.856 Y180.854 E4.85942
G1 X159.423 Y181.646 E4.90445
G1 X158.921 Y182.397 E4.94952
G1 X158.214 Y183.257 E5.00506
G1 X158.102 Y183.379 E5.01332
G1 X157.462 Y184.017 E5.05841
G1 X156.769 Y184.595 E5.10343
G1 X156.027 Y185.11 E5.14849
G1 X155.242 Y185.557 E5.19356
G1 X154.421 Y185.933 E5.23861
G1 X153.57 Y186.235 E5.28366
G1 X152.696 Y186.461 E5.3287
G1 X151.805 Y186.608 E5.37375
G1 X150.771 Y186.679 E5.42546
G1 X150.031 Y186.691 E5.46238
G1 X146.57 Y186.69 E5.63505
G1 X145.942 Y186.681 E5.66639
G1 X144.836 Y186.605 E5.7217
G1 X143.231 Y186.406 E5.80238
G1 X140.415 Y186.043 E5.94404
G1 X137.868 Y185.791 E6.07173
G1 X135.344 Y185.614 E6.19796
G1 X132.804 Y185.507 E6.32479
G1 X130.277 Y185.473 E6.45088
G1 X127.736 Y185.511 E6.57766
G1 X125.183 Y185.62 E6.70515
G1 X122.671 Y185.8 E6.83079
G1 X120.131 Y186.054 E6.95815
G1 X117.547 Y186.386 E7.08812
G1 X116.741 Y186.507 E7.12878
G1 X115.559 Y186.615 E7.188
G1 X114.082 Y186.663 E7.26173
G1 X113.751 Y186.668 E7.27824
G1 X92.851 Y186.667 E8.32095
G1 X92.153 Y186.657 E8.35578
G1 X91.251 Y186.604 E8.40085
G1 X90.358 Y186.472 E8.44589
G1 X89.48 Y186.261 E8.49094
G1 X88.624 Y185.973 E8.536
G1 X87.797 Y185.611 E8.58104
G1 X87.005 Y185.176 E8.62612
G1 X86.254 Y184.674 E8.67119
G1 X85.551 Y184.107 E8.71624
G1 X84.901 Y183.48 E8.7613
G1 X84.309 Y182.798 E8.80636
G1 X83.779 Y182.067 E8.8514
G1 X83.317 Y181.291 E8.89646
G1 X82.924 Y180.478 E8.94151
G1 X82.606 Y179.633 E8.98656
G1 X82.363 Y178.763 E9.03162
G1 X82.198 Y177.875 E9.07668
G1 X82.103 Y176.734 E9.1338
G1 X82.09 Y176.126 E9.16414
G1 X82.091 Y164.286 E9.75484
G1 X82.101 Y163.624 E9.78787
G1 X82.155 Y162.722 E9.83296
G1 X82.288 Y161.829 E9.878
G1 X82.387 Y161.377 E9.90108
G1 X82.554 Y160.687 E9.9365
G1 X83.163 Y158.042 E10.07192
G1 X83.661 Y155.57 E10.19772
G1 X84.087 Y153.071 E10.3242
G1 X84.439 Y150.591 E10.44916
G1 X84.73 Y148.03 E10.57775
G1 X84.943 Y145.528 E10.70303
G1 X85.088 Y142.966 E10.83105
G1 X85.16 Y140.433 E10.95748
G1 X85.16 Y137.899 E11.0839
G1 X85.088 Y135.366 E11.21032
G1 X84.941 Y132.762 E11.34044
G1 X84.8 Y131.004 E11.42843
G1 X84.771 Y130.477 E11.45476
G1 X84.758 Y129.87 E11.48505
G1 X84.759 Y105.33 E12.70936
G1 X84.769 Y104.657 E12.74294
G1 X84.823 Y103.756 E12.78797
G1 X84.955 Y102.863 E12.83301
G1 X85.167 Y101.985 E12.87807
G1 X85.455 Y101.129 E12.92313
G1 X85.818 Y100.302 E12.96819
G1 X86.252 Y99.51 E13.01324
G1 X86.755 Y98.76 E13.0583
G1 X87.323 Y98.057 E13.10339
G1 X87.95 Y97.407 E13.14844
G1 X88.632 Y96.816 E13.19347
G1 X89.364 Y96.286 E13.23855
G1 X90.14 Y95.824 E13.28361
G1 X90.953 Y95.432 E13.32864
G1 X91.798 Y95.114 E13.37368
G1 X92.668 Y94.872 E13.41874
G1 X93.556 Y94.707 E13.4638
G1 X94.681 Y94.613 E13.52012
G1 X95.288 Y94.6 E13.55041
G1 X132.489 Y94.601 E15.40637
G1 X133.372 Y94.613 E15.45043
G0 F6000 X133.377 Y94.213
G1 F1200 X133.883 Y94.232 E15.47569
G1 X134.225 Y94.253 E15.49279
G1 X134.909 Y94.317 E15.52706
G1 X135.642 Y94.41 E15.56393
G1 X136.381 Y94.531 E15.60129
G1 X136.697 Y94.594 E15.61736
G1 X137.383 Y94.754 E15.6525
G1 X137.676 Y94.833 E15.66764
G1 X138.26 Y95.009 E15.69807
G1 X138.931 Y95.232 E15.73335
G1 X139.927 Y95.62 E15.78668
G1 X140.56 Y95.904 E15.82129
G1 X141.479 Y96.371 E15.87272
G1 X142.118 Y96.736 E15.90944
G1 X142.819 Y97.173 E15.95065
G1 X143.075 Y97.347 E15.96609
G1 X143.541 Y97.683 E15.99475
G1 X143.768 Y97.856 E16.00899
G1 X144.294 Y98.285 E16.04286
G1 X144.865 Y98.781 E16.08059
G1 X145.409 Y99.288 E16.11769
G1 X145.639 Y99.518 E16.13392
G1 X146.103 Y100.012 E16.16773
G1 X146.293 Y100.228 E16.18208
G1 X146.716 Y100.74 E16.21522
G1 X147.148 Y101.298 E16.25042
G1 X147.741 Y102.148 E16.30213
G1 X148.145 Y102.791 E16.34001
G1 X148.542 Y103.477 E16.37956
G1 X148.681 Y103.74 E16.3944
G1 X148.968 Y104.326 E16.42695
G1 X149.086 Y104.587 E16.44124
G1 X149.325 Y105.161 E16.47226
G1 X149.599 Y105.876 E16.51046
G1 X149.848 Y106.604 E16.54885
G1 X149.938 Y106.902 E16.56438
G1 X150.101 Y107.506 E16.59559
G1 X150.175 Y107.816 E16.61149
G1 X150.318 Y108.52 E16.64733
G1 X150.436 Y109.222 E16.68285
G1 X150.539 Y110.014 E16.72269
G1 X150.573 Y110.386 E16.74133
G1 X150.611 Y110.98 E16.77102
G1 X150.639 Y111.88 E16.81595
G1 X150.642 Y112.197 E16.83176
G1 X150.641 Y116.965 E17.06964
G1 X150.601 Y119.411 E17.19169
G1 X150.607 Y121.977 E17.31971
G1 X150.683 Y124.487 E17.44499
G1 X150.833 Y127.041 E17.57263
G1 X151.049 Y129.527 E17.69712
G1 X151.345 Y132.083 E17.82549
G1 X151.698 Y134.53 E17.94884
G1 X152.136 Y137.049 E18.0764
G1 X152.643 Y139.553 E18.20386
G1 X153.201 Y141.953 E18.32679
G1 X153.85 Y144.429 E18.45449
G1 X154.561 Y146.858 E18.58076
G1 X155.348 Y149.287 E18.70814
G1 X156.188 Y151.652 E18.83335
G1 X157.098 Y153.999 E18.95894
G1 X158.067 Y156.307 E19.08382
G1 X158.941 Y158.314 E19.19303
G1 X159.072 Y158.629 E19.21005
G1 X159.294 Y159.187 E19.24002
G1 X159.439 Y159.573 E19.26059
G1 X159.678 Y160.258 E19.29678
G1 X159.819 Y160.692 E19.31955
G1 X160.02 Y161.331 E19.35297
G1 X160.2 Y161.953 E19.38527
G1 X160.309 Y162.371 E19.40682
G1 X160.497 Y163.159 E19.44724
G1 X160.599 Y163.638 E19.47167
G1 X160.741 Y164.395 E19.5101
G1 X160.879 Y165.213 E19.55149
G1 X161.032 Y166.204 E19.60151
G1 X161.088 Y166.62 E19.62246
G1 X161.182 Y167.444 E19.66383
G1 X161.23 Y167.996 E19.69148
G1 X161.25 Y168.322 E19.70777
G1 X161.268 Y168.748 E19.72904
G1 X161.309 Y170.824 E19.83263
G1 X161.309 Y175.76 E20.07889
G1 X161.299 Y176.502 E20.11591
G1 X161.247 Y177.421 E20.16184
G1 X161.115 Y178.332 E20.20776
G1 X160.904 Y179.228 E20.25369
G1 X160.617 Y180.103 E20.29963
G1 X160.254 Y180.949 E20.34556
G1 X159.82 Y181.761 E20.39149
G1 X159.317 Y182.532 E20.43742
G1 X158.509 Y183.527 E20.50136
G1 X158.397 Y183.649 E20.50963
G1 X157.745 Y184.3 E20.55559
G1 X157.04 Y184.892 E20.60152
G1 X156.285 Y185.42 E20.64749
G1 X155.488 Y185.88 E20.6934
G1 X154.654 Y186.27 E20.73933
G1 X153.789 Y186.586 E20.78527
G1 X152.901 Y186.826 E20.83117
G1 X151.994 Y186.987 E20.87712
G1 X150.778 Y187.079 E20.93796
G1 X150.031 Y187.091 E20.97524
G1 X146.564 Y187.09 E21.14821
G1 X145.936 Y187.081 E21.17954
G1 X144.787 Y187.002 E21.237
G1 X143.18 Y186.803 E21.31779
G1 X140.361 Y186.439 E21.45959
G1 X137.833 Y186.19 E21.58633
G1 X135.335 Y186.014 E21.71126
G1 X132.782 Y185.907 E21.83874
G1 X130.277 Y185.873 E21.96373
G1 X127.723 Y185.911 E22.09116
G1 X125.228 Y186.018 E22.21575
G1 X122.706 Y186.198 E22.3419
G1 X120.151 Y186.454 E22.47
G1 X117.655 Y186.775 E22.59556
G1 X116.8 Y186.903 E22.63869
G1 X115.572 Y187.014 E22.7002
G1 X114.095 Y187.062 E22.77393
G1 X113.751 Y187.068 E22.79109
G1 X92.845 Y187.067 E23.8341
G1 X92.147 Y187.057 E23.86893
G1 X91.228 Y187.004 E23.91485
G1 X90.317 Y186.871 E23.96078
G1 X89.421 Y186.66 E24.00671
G1 X88.547 Y186.372 E24.05262
G1 X87.7 Y186.009 E24.09859
G1 X86.889 Y185.574 E24.14451
G1 X86.119 Y185.07 E24.19042
G1 X85.395 Y184.501 E24.23636
G1 X84.723 Y183.871 E24.28231
G1 X84.108 Y183.186 E24.32824
G1 X83.555 Y182.45 E24.37417
G1 X83.068 Y181.669 E24.42009
G1 X82.651 Y180.848 E24.46603
G1 X82.306 Y179.994 E24.51198
G1 X82.037 Y179.114 E24.55789
G1 X81.845 Y178.213 E24.60385
G1 X81.732 Y177.3 E24.64975
G1 X81.703 Y176.745 E24.67747
G1 X81.69 Y176.126 E24.70836
G1 X81.691 Y164.28 E25.29936
G1 X81.701 Y163.618 E25.33239
G1 X81.755 Y162.699 E25.37832
G1 X81.888 Y161.788 E25.42425
G1 X81.998 Y161.283 E25.45004
G1 X82.182 Y160.525 E25.48895
G1 X82.768 Y157.979 E25.6193
G1 X83.269 Y155.489 E25.74601
G1 X83.683 Y153.06 E25.86894
G1 X84.049 Y150.487 E25.9986
G1 X84.329 Y148.023 E26.12232
G1 X84.546 Y145.472 E26.25005
G1 X84.688 Y142.967 E26.37523
G1 X84.76 Y140.421 E26.5023
G1 X84.76 Y137.911 E26.62752
G1 X84.688 Y135.365 E26.7546
G1 X84.544 Y132.816 E26.88197
G1 X84.401 Y131.036 E26.97106
G1 X84.371 Y130.488 E26.99844
G1 X84.358 Y129.87 E27.02928
G1 X84.359 Y105.325 E28.25383
G1 X84.369 Y104.652 E28.28741
G1 X84.423 Y103.732 E28.33339
G1 X84.556 Y102.821 E28.37932
G1 X84.768 Y101.925 E28.42526
G1 X85.056 Y101.051 E28.47117
G1 X85.42 Y100.205 E28.51712
G1 X85.855 Y99.394 E28.56303
G1 X86.36 Y98.624 E28.60897
G1 X86.929 Y97.9 E28.65491
G1 X87.559 Y97.229 E28.70083
G1 X88.244 Y96.614 E28.74676
G1 X88.981 Y96.062 E28.7927
G1 X89.762 Y95.575 E28.83862
G1 X90.583 Y95.158 E28.88456
G1 X91.437 Y94.814 E28.93049
G1 X92.318 Y94.546 E28.97643
G1 X93.218 Y94.354 E29.02234
G1 X94.132 Y94.242 E29.06828
G1 X94.67 Y94.213 E29.09516
G1 X95.288 Y94.2 E29.126
G1 X132.494 Y94.201 E30.98222
G1 X133.377 Y94.213 E31.02628
G0 F6000 X133.382 Y93.813
G1 F1200 X133.907 Y93.833 E31.05249
G1 X134.249 Y93.854 E31.06958
G1 X134.96 Y93.92 E31.10521
G1 X135.693 Y94.013 E31.14207
G1 X136.459 Y94.138 E31.18079
G1 X136.775 Y94.201 E31.19687
G1 X137.488 Y94.368 E31.2334
G1 X137.781 Y94.447 E31.24854
G1 X138.386 Y94.629 E31.28006
G1 X139.057 Y94.852 E31.31534
G1 X140.091 Y95.255 E31.3707
G1 X140.724 Y95.539 E31.40532
G1 X141.677 Y96.023 E31.45864
G1 X142.316 Y96.388 E31.49535
G1 X143.043 Y96.842 E31.53812
G1 X143.299 Y97.016 E31.55356
G1 X143.784 Y97.365 E31.58337
G1 X144.011 Y97.538 E31.59761
G1 X144.557 Y97.983 E31.63275
G1 X145.128 Y98.479 E31.67048
G1 X145.692 Y99.005 E31.70896
G1 X145.922 Y99.235 E31.72519
G1 X146.403 Y99.748 E31.76027
G1 X146.593 Y99.964 E31.77462
G1 X147.032 Y100.495 E31.809
G1 X147.464 Y101.053 E31.8442
G1 X148.08 Y101.935 E31.89788
G1 X148.484 Y102.578 E31.93576
G1 X148.895 Y103.29 E31.97678
G1 X149.034 Y103.553 E31.99162
G1 X149.332 Y104.161 E32.0254
G1 X149.45 Y104.422 E32.03969
G1 X149.699 Y105.018 E32.07191
G1 X149.973 Y105.733 E32.11012
G1 X150.231 Y106.489 E32.14997
G1 X150.321 Y106.787 E32.1655
G1 X150.49 Y107.413 E32.19785
G1 X150.564 Y107.723 E32.21375
G1 X150.713 Y108.454 E32.25097
G1 X150.831 Y109.156 E32.28648
G1 X150.937 Y109.978 E32.32783
G1 X150.971 Y110.35 E32.34647
G1 X151.01 Y110.966 E32.37726
G1 X151.039 Y111.876 E32.42269
G1 X151.042 Y112.193 E32.4385
G1 X151.041 Y116.972 E32.67693
G1 X151.001 Y119.417 E32.79893
G1 X151.007 Y121.964 E32.926
G1 X151.083 Y124.487 E33.05193
G1 X151.23 Y126.981 E33.17657
G1 X151.451 Y129.517 E33.30357
G1 X151.74 Y132.016 E33.42908
G1 X152.094 Y134.47 E33.55277
G1 X152.528 Y136.972 E33.67946
G1 X153.033 Y139.462 E33.80622
G1 X153.591 Y141.867 E33.92939
G1 X154.235 Y144.321 E34.05597
G1 X154.947 Y146.75 E34.18225
G1 X155.722 Y149.145 E34.30784
G1 X156.563 Y151.51 E34.43307
G1 X157.473 Y153.861 E34.55884
G1 X158.419 Y156.113 E34.6807
G1 X159.308 Y158.154 E34.79177
G1 X159.444 Y158.481 E34.80944
G1 X159.666 Y159.039 E34.8394
G1 X159.817 Y159.44 E34.86077
G1 X160.058 Y160.135 E34.89747
G1 X160.2 Y160.572 E34.9204
G1 X160.495 Y161.525 E34.97017
G1 X160.585 Y161.844 E34.9867
G1 X160.698 Y162.278 E35.00908
G1 X160.886 Y163.066 E35.0495
G1 X160.992 Y163.563 E35.07485
G1 X161.135 Y164.328 E35.11368
G1 X161.274 Y165.152 E35.15537
G1 X161.427 Y166.143 E35.20539
G1 X161.485 Y166.574 E35.22709
G1 X161.579 Y167.398 E35.26847
G1 X161.629 Y167.971 E35.29716
G1 X161.649 Y168.297 E35.31346
G1 X161.668 Y168.74 E35.33558
G1 X161.709 Y170.824 E35.43957
G1 X161.709 Y175.765 E35.68608
G1 X161.699 Y176.507 E35.7231
G1 X161.646 Y177.444 E35.76992
G1 X161.514 Y178.372 E35.81668
G1 X161.303 Y179.286 E35.86348
G1 X161.016 Y180.179 E35.91028
G1 X160.653 Y181.043 E35.95703
G1 X160.217 Y181.874 E36.00385
G1 X159.713 Y182.665 E36.05065
G1 X159.143 Y183.41 E36.09745
G1 X158.691 Y183.92 E36.13144
G1 X158.028 Y184.583 E36.17822
G1 X157.311 Y185.188 E36.22503
G1 X156.545 Y185.729 E36.27181
G1 X155.735 Y186.202 E36.31861
G1 X154.889 Y186.605 E36.36536
G1 X154.01 Y186.935 E36.4122
G1 X153.108 Y187.189 E36.45895
G1 X152.186 Y187.364 E36.50577
G1 X150.785 Y187.479 E36.57591
G1 X150.031 Y187.491 E36.61353
G1 X146.558 Y187.49 E36.7868
G1 X145.93 Y187.481 E36.81813
G1 X144.737 Y187.399 E36.87779
G1 X143.128 Y187.2 E36.95867
G1 X140.3 Y186.835 E37.10093
G1 X137.802 Y186.588 E37.22617
G1 X135.291 Y186.412 E37.35175
G1 X132.794 Y186.307 E37.47644
G1 X130.277 Y186.273 E37.60202
G1 X127.748 Y186.311 E37.72821
G1 X125.238 Y186.418 E37.85355
G1 X122.739 Y186.597 E37.97854
G1 X120.205 Y186.85 E38.10559
G1 X117.675 Y187.176 E38.23286
G1 X116.86 Y187.298 E38.27397
G1 X115.585 Y187.414 E38.33784
G1 X114.108 Y187.462 E38.41157
G1 X113.751 Y187.468 E38.42938
G1 X92.839 Y187.467 E39.47269
G1 X92.141 Y187.457 E39.50751
G1 X91.205 Y187.403 E39.55429
G1 X90.277 Y187.271 E39.60105
G1 X89.363 Y187.059 E39.64786
G1 X88.471 Y186.77 E39.69464
G1 X87.606 Y186.407 E39.74144
G1 X86.776 Y185.971 E39.78822
G1 X85.985 Y185.466 E39.83504
G1 X85.241 Y184.895 E39.88183
G1 X84.548 Y184.263 E39.92862
G1 X83.911 Y183.575 E39.9754
G1 X83.336 Y182.834 E40.02219
G1 X82.825 Y182.048 E40.06896
