;FLAVOR:Marlin
;TIME:4132
;Filament used: 1.93451m
;Layer height: 0.15
;MINX:65.106
;MINY:86.015
;MINZ:0.3
;MAXX:169.894
;MAXY:149
;MAXZ:9.3
;Generated with Cura_SteamEngine 4.6.2
M140 S60
M105
M190 S60
M104 S200
M105
M109 S200
M82 ;absolute extrusion mode
; Ender 3 Custom Start G-code
G92 E0 ; Reset Extruder
G28 ; Home all axes
G1 Z2.0 F3000 ; Move Z Axis up little to prevent scratching of Heat Bed
G1 X0.1 Y20 Z0.3 F5000.0 ; Move to start position
G1 X0.1 Y200.0 Z0.3 F1500.0 E15 ; Draw the first line
G1 X0.4 Y200.0 Z0.3 F5000.0 ; Move to side a little
G1 X0.4 Y20 Z0.3 F1500.0 E30 ; Draw the second line
G92 E0 ; Reset Extruder
G1 Z2.0 F3000 ; Move Z Axis up little to prevent scratching of Heat Bed
G1 X5 Y20 Z0.3 F5000.0 ; Move over to prevent blob squish
G92 E0
G92 E0
G1 F1500 E-6.5
;LAYER_COUNT:61
;LAYER:0
M107
G0 F6000 X143.274 Y136.463 Z0.3
;TYPE:SKIRT
G1 F1500 E0
G1 F1200 X141.058 Y137.663 E0.12573
G1 X138.867 Y138.932 E0.25205
G1 X136.676 Y140.284 E0.38049
G1 X134.581 Y141.66 E0.50554
G1 X132.438 Y143.158 E0.63599
G1 X130.126 Y144.817 E0.77796
G1 X129.828 Y145.023 E0.79603
G1 X129.237 Y145.416 E0.83144
G1 X128.867 Y145.65 E0.85328
G1 X128.571 Y145.829 E0.87054
G1 X127.792 Y146.255 E0.91483
G1 X127.09 Y146.595 E0.95375
G1 X126.581 Y146.821 E0.98153
G1 X126.025 Y147.055 E1.01163
G1 X125.612 Y147.219 E1.0338
G1 X125.388 Y147.302 E1.04572
G1 X124.747 Y147.515 E1.07941
G1 X124.336 Y147.637 E1.1008
G1 X123.725 Y147.798 E1.13233
G1 X123.339 Y147.887 E1.15209
G1 X122.607 Y148.028 E1.18928
G1 X122.258 Y148.082 E1.2069
G1 X121.36 Y148.18 E1.25197
G1 X120.457 Y148.199 E1.29703
G1 X119.556 Y148.138 E1.34208
G1 X118.664 Y147.997 E1.38714
G1 X117.788 Y147.778 E1.43219
G1 X116.954 Y147.49 E1.4762
G1 X115.355 Y146.854 E1.56206
G1 X112.958 Y145.925 E1.69031
G1 X110.588 Y145.082 E1.81581
G1 X108.149 Y144.291 E1.94373
G1 X105.725 Y143.58 E2.06976
G1 X103.263 Y142.934 E2.19675
G1 X100.739 Y142.345 E2.32605
G1 X98.328 Y141.857 E2.44878
G1 X95.789 Y141.416 E2.57735
G1 X93.272 Y141.052 E2.70423
G1 X90.749 Y140.76 E2.83094
G1 X88.229 Y140.539 E2.95714
G1 X85.701 Y140.391 E3.08348
G1 X83.162 Y140.313 E3.21021
G1 X80.634 Y140.307 E3.33634
G1 X78.03 Y140.375 E3.46629
G1 X77.133 Y140.421 E3.51111
G1 X76.48 Y140.445 E3.54371
G1 X75.577 Y140.438 E3.58876
G1 X74.678 Y140.352 E3.63381
G1 X73.79 Y140.186 E3.67888
G1 X72.92 Y139.942 E3.72396
G1 X72.076 Y139.622 E3.769
G1 X71.263 Y139.229 E3.81405
G1 X70.488 Y138.766 E3.85909
G1 X69.756 Y138.235 E3.9042
G1 X69.075 Y137.643 E3.94922
G1 X68.449 Y136.992 E3.99428
G1 X67.883 Y136.288 E4.03934
G1 X67.381 Y135.537 E4.08441
G1 X66.948 Y134.745 E4.12944
G1 X66.586 Y133.917 E4.17453
G1 X66.299 Y133.061 E4.21957
G1 X66.089 Y132.183 E4.26461
G1 X65.958 Y131.289 E4.30969
G1 X65.906 Y130.388 E4.35471
G1 X65.934 Y129.485 E4.39979
G1 X66.042 Y128.588 E4.44486
G1 X66.24 Y127.658 E4.4923
G1 X66.353 Y127.23 E4.51438
G1 X67.001 Y124.644 E4.64739
G1 X67.537 Y122.212 E4.77163
G1 X68.014 Y119.709 E4.89876
G1 X68.421 Y117.199 E5.02562
G1 X68.751 Y114.713 E5.15073
G1 X69.018 Y112.161 E5.27875
G1 X69.209 Y109.64 E5.40488
G1 X69.349 Y106.517 E5.56084
G1 X69.367 Y105.865 E5.59338
G1 X69.432 Y104.964 E5.63845
G1 X69.576 Y104.072 E5.68353
G1 X69.798 Y103.197 E5.72857
G1 X70.097 Y102.345 E5.77362
G1 X70.356 Y101.753 E5.80585
G1 X70.769 Y100.95 E5.8509
G1 X71.251 Y100.186 E5.89597
G1 X71.799 Y99.468 E5.94103
G1 X72.408 Y98.802 E5.98606
G1 X73.074 Y98.192 E6.03112
G1 X73.791 Y97.643 E6.07617
G1 X74.554 Y97.16 E6.12122
G1 X75.324 Y96.761 E6.16449
G1 X75.567 Y96.648 E6.17786
G1 X76.402 Y96.304 E6.22291
G1 X77.264 Y96.035 E6.26796
G1 X78.147 Y95.843 E6.31305
G1 X79.275 Y95.714 E6.36969
G1 X79.945 Y95.675 E6.40317
G1 X80.651 Y95.659 E6.4384
G1 X81.454 Y95.668 E6.47847
G1 X84.102 Y95.659 E6.61058
G1 X86.635 Y95.581 E6.73701
G1 X89.163 Y95.43 E6.86336
G1 X91.699 Y95.207 E6.99037
G1 X94.237 Y94.912 E7.11784
G1 X96.748 Y94.546 E7.24444
G1 X99.222 Y94.115 E7.36973
G1 X101.742 Y93.601 E7.49804
G1 X104.184 Y93.032 E7.62313
G1 X106.65 Y92.383 E7.75035
G1 X109.092 Y91.665 E7.87734
G1 X111.503 Y90.882 E8.00381
G1 X113.92 Y90.021 E8.13182
G1 X116.276 Y89.106 E8.25791
G1 X118.556 Y88.147 E8.38131
G1 X119.665 Y87.663 E8.44168
G1 X120.508 Y87.338 E8.48676
G1 X121.377 Y87.09 E8.53184
G1 X122.264 Y86.92 E8.5769
G1 X123.162 Y86.829 E8.62193
G1 X123.98 Y86.815 E8.66275
G1 X124.195 Y86.82 E8.67348
G1 X125.096 Y86.881 E8.71853
G1 X125.988 Y87.021 E8.76358
G1 X126.865 Y87.24 E8.80867
G1 X127.905 Y87.612 E8.86378
G1 X128.129 Y87.706 E8.8759
G1 X128.945 Y88.092 E8.92093
G1 X129.363 Y88.325 E8.94481
G1 X129.812 Y88.59 E8.97082
G1 X132.136 Y89.928 E9.10461
G1 X134.389 Y91.14 E9.23224
G1 X136.637 Y92.27 E9.35777
G1 X138.934 Y93.342 E9.48423
G1 X141.285 Y94.361 E9.61207
G1 X143.633 Y95.302 E9.73827
G1 X146.037 Y96.184 E9.86602
G1 X148.386 Y96.973 E9.98965
G1 X151.543 Y97.929 E10.15421
G1 X152.717 Y98.304 E10.2157
G1 X153.096 Y98.433 E10.23567
G1 X154.672 Y99.01 E10.3194
G1 X155.149 Y99.199 E10.345
G1 X155.472 Y99.334 E10.36247
G1 X156.668 Y99.856 E10.42757
G1 X157.308 Y100.162 E10.46296
G1 X158.049 Y100.551 E10.50472
G1 X159.112 Y101.132 E10.56515
G1 X159.492 Y101.35 E10.58701
G1 X160.696 Y102.08 E10.65726
G1 X161.5 Y102.59 E10.70476
G1 X161.865 Y102.832 E10.72661
G1 X162.573 Y103.325 E10.76965
G1 X162.926 Y103.583 E10.79146
G1 X163.346 Y103.903 E10.81781
G1 X163.623 Y104.122 E10.83542
G1 X163.942 Y104.383 E10.85599
G1 X164.417 Y104.797 E10.88742
G1 X165.006 Y105.343 E10.92749
G1 X165.673 Y106.021 E10.97494
G1 X165.92 Y106.297 E10.99342
G1 X166.405 Y106.882 E11.03133
G1 X166.558 Y107.081 E11.04385
G1 X167.061 Y107.797 E11.08751
G1 X167.232 Y108.064 E11.10333
G1 X167.685 Y108.845 E11.14837
G1 X168.013 Y109.535 E11.18649
G1 X168.21 Y109.993 E11.21136
G1 X168.53 Y110.837 E11.25639
G1 X168.834 Y111.983 E11.31554
G1 X168.874 Y112.179 E11.32552
G1 X169.053 Y113.482 E11.39114
G1 X169.068 Y113.689 E11.4015
G1 X169.094 Y114.592 E11.44657
G1 X169.051 Y115.376 E11.48574
G1 X169.009 Y115.825 E11.50824
G1 X168.885 Y116.72 E11.55332
G1 X168.687 Y117.584 E11.59754
G1 X168.606 Y117.878 E11.61275
G1 X168.327 Y118.737 E11.65781
G1 X168.134 Y119.219 E11.68371
G1 X167.996 Y119.538 E11.70106
G1 X167.417 Y120.675 E11.76471
G1 X167.241 Y120.973 E11.78198
G1 X166.669 Y121.838 E11.83372
G1 X166.456 Y122.127 E11.85163
G1 X166.003 Y122.697 E11.88795
G1 X165.63 Y123.134 E11.91662
G1 X165.231 Y123.575 E11.94629
G1 X164.873 Y123.948 E11.97208
G1 X164.45 Y124.364 E12.00168
G1 X163.707 Y125.053 E12.05223
G1 X163.454 Y125.28 E12.06919
G1 X162.972 Y125.698 E12.10102
G1 X162.71 Y125.918 E12.11809
G1 X161.669 Y126.755 E12.18473
G1 X160.192 Y127.871 E12.27709
G1 X159.416 Y128.424 E12.32463
G1 X158.98 Y128.717 E12.35083
G1 X157.633 Y129.576 E12.43054
G1 X157.319 Y129.769 E12.44893
G1 X156.583 Y130.196 E12.49138
G1 X155.735 Y130.657 E12.53953
G1 X154.613 Y131.226 E12.60229
G1 X153.906 Y131.562 E12.64135
G1 X153.214 Y131.884 E12.67943
G1 X152.279 Y132.306 E12.73061
G1 X151.5 Y132.648 E12.77305
G1 X150.232 Y133.189 E12.84183
G1 X147.876 Y134.218 E12.97009
G1 X145.55 Y135.312 E13.09833
G1 X143.274 Y136.463 E13.22557
G1 F1500 E6.72557
G0 F6000 X159.074 Y116.076
G0 X159.421 Y115.366
G0 X159.572 Y114.581
G0 X159.472 Y113.776
G0 X159.091 Y113.002
G0 X158.553 Y112.348
G0 X158.043 Y111.891
G0 X125.123 Y86.481
G1 F1500 E13.22557
G1 F1200 X126.033 Y86.622 E13.27152
G1 X126.927 Y86.841 E13.31744
G1 X128.06 Y87.243 E13.37742
G1 X128.284 Y87.337 E13.38953
G1 X129.116 Y87.73 E13.43544
G1 X129.566 Y87.98 E13.46112
G1 X130.085 Y88.286 E13.49118
G1 X132.334 Y89.581 E13.62066
G1 X134.551 Y90.774 E13.74626
G1 X136.807 Y91.907 E13.87221
G1 X139.1 Y92.978 E13.99847
G1 X141.439 Y93.992 E14.12566
G1 X143.802 Y94.938 E14.25265
G1 X146.133 Y95.793 E14.37652
G1 X148.532 Y96.599 E14.50278
G1 X151.664 Y97.548 E14.66605
G1 X152.838 Y97.923 E14.72753
G1 X153.232 Y98.057 E14.7483
G1 X154.82 Y98.638 E14.83266
G1 X155.297 Y98.827 E14.85826
G1 X155.632 Y98.967 E14.87637
G1 X156.828 Y99.489 E14.94147
G1 X157.493 Y99.807 E14.97825
G1 X158.241 Y100.2 E15.02041
G1 X159.304 Y100.781 E15.08084
G1 X159.699 Y101.008 E15.10357
G1 X160.91 Y101.742 E15.17422
G1 X161.714 Y102.252 E15.22172
G1 X162.093 Y102.504 E15.24443
G1 X162.801 Y102.997 E15.28747
G1 X163.168 Y103.264 E15.31011
G1 X163.588 Y103.584 E15.33646
G1 X163.876 Y103.812 E15.35478
G1 X164.195 Y104.073 E15.37534
G1 X164.689 Y104.503 E15.40802
G1 X165.278 Y105.049 E15.44809
G1 X165.971 Y105.754 E15.49741
G1 X166.218 Y106.03 E15.51589
G1 X166.722 Y106.638 E15.55529
G1 X166.875 Y106.837 E15.56781
G1 X167.398 Y107.581 E15.61318
G1 X167.569 Y107.848 E15.629
G1 X168.032 Y108.644 E15.67494
G1 X168.38 Y109.377 E15.71542
G1 X168.577 Y109.835 E15.7403
G1 X168.904 Y110.695 E15.7862
G1 X169.226 Y111.903 E15.84857
G1 X169.266 Y112.099 E15.85855
G1 X169.452 Y113.453 E15.92674
G1 X169.467 Y113.66 E15.93709
G1 X169.494 Y114.58 E15.98301
G1 X169.449 Y115.413 E16.02463
G1 X169.407 Y115.862 E16.04713
G1 X169.281 Y116.774 E16.09306
G1 X169.072 Y117.691 E16.13998
G1 X168.991 Y117.985 E16.1552
G1 X168.708 Y118.861 E16.20112
G1 X168.501 Y119.378 E16.22891
G1 X168.363 Y119.697 E16.24625
G1 X167.761 Y120.878 E16.31238
G1 X167.585 Y121.176 E16.32965
G1 X166.991 Y122.075 E16.38341
G1 X166.778 Y122.364 E16.40132
G1 X166.307 Y122.957 E16.4391
G1 X165.934 Y123.394 E16.46776
G1 X165.52 Y123.852 E16.49856
G1 X165.162 Y124.225 E16.52436
G1 X164.722 Y124.657 E16.55512
G1 X163.979 Y125.346 E16.60567
G1 X163.716 Y125.582 E16.6233
G1 X163.234 Y126 E16.65513
G1 X162.961 Y126.228 E16.67288
G1 X161.911 Y127.073 E16.74012
G1 X160.684 Y128.005 E16.81699
G1 X160.424 Y128.196 E16.83309
G1 X159.648 Y128.749 E16.88063
G1 X159.195 Y129.054 E16.90787
G1 X157.848 Y129.913 E16.98758
G1 X157.522 Y130.113 E17.00666
G1 X156.776 Y130.547 E17.04972
G1 X155.917 Y131.014 E17.0985
G1 X154.785 Y131.587 E17.16179
G1 X154.075 Y131.925 E17.20103
G1 X153.379 Y132.248 E17.23931
G1 X152.44 Y132.672 E17.29071
G1 X151.657 Y133.016 E17.33338
G1 X150.389 Y133.557 E17.40215
G1 X148.027 Y134.588 E17.53073
G1 X145.722 Y135.673 E17.65783
G1 X143.481 Y136.806 E17.78311
G1 X141.244 Y138.018 E17.91004
G1 X139.056 Y139.285 E18.03619
G1 X136.901 Y140.615 E18.16253
G1 X134.808 Y141.99 E18.28746
G1 X132.66 Y143.491 E18.4182
G1 X130.359 Y145.142 E18.55949
G1 X130.049 Y145.356 E18.57828
G1 X129.458 Y145.749 E18.61369
G1 X129.074 Y145.992 E18.63636
G1 X128.778 Y146.171 E18.65362
G1 X127.969 Y146.614 E18.69964
G1 X127.556 Y146.817 E18.7226
G1 X126.999 Y147.075 E18.75322
G1 X126.736 Y147.19 E18.76754
G1 X126.18 Y147.424 E18.79764
G1 X125.751 Y147.594 E18.82066
G1 X125.527 Y147.677 E18.83258
G1 X124.86 Y147.899 E18.86765
G1 X124.449 Y148.021 E18.88904
G1 X123.815 Y148.188 E18.92175
G1 X123.429 Y148.277 E18.94151
G1 X122.668 Y148.423 E18.98017
G1 X122.319 Y148.477 E18.99779
G1 X121.404 Y148.578 E19.04372
G1 X120.483 Y148.6 E19.08968
G1 X119.565 Y148.541 E19.13557
G1 X118.654 Y148.403 E19.18154
G1 X117.76 Y148.187 E19.22743
G1 X116.807 Y147.862 E19.27766
G1 X115.217 Y147.23 E19.36302
G1 X112.816 Y146.299 E19.4915
G1 X110.436 Y145.452 E19.61753
G1 X108.051 Y144.679 E19.74261
G1 X105.625 Y143.968 E19.86874
G1 X103.142 Y143.316 E19.99681
G1 X100.666 Y142.738 E20.12366
G1 X98.258 Y142.251 E20.24623
G1 X95.729 Y141.812 E20.37429
G1 X93.21 Y141.447 E20.50128
G1 X90.735 Y141.16 E20.62558
G1 X88.204 Y140.939 E20.75234
G1 X85.666 Y140.79 E20.87917
G1 X83.149 Y140.713 E21.00481
G1 X80.608 Y140.707 E21.13158
G1 X78.099 Y140.773 E21.2568
G1 X77.147 Y140.821 E21.30435
G1 X76.494 Y140.845 E21.33695
G1 X75.574 Y140.839 E21.38285
G1 X74.657 Y140.753 E21.4288
G1 X73.751 Y140.587 E21.47476
G1 X72.863 Y140.344 E21.52069
G1 X72 Y140.025 E21.56659
G1 X71.167 Y139.632 E21.61254
G1 X70.372 Y139.168 E21.65846
G1 X69.62 Y138.637 E21.70439
G1 X68.917 Y138.043 E21.75031
G1 X68.268 Y137.389 E21.79628
G1 X67.678 Y136.682 E21.84222
G1 X67.152 Y135.927 E21.88812
G1 X66.693 Y135.129 E21.93405
G1 X66.306 Y134.294 E21.97997
G1 X65.992 Y133.428 E22.02592
G1 X65.755 Y132.539 E22.07183
G1 X65.595 Y131.632 E22.11778
G1 X65.515 Y130.715 E22.1637
G1 X65.515 Y129.794 E22.20965
G1 X65.595 Y128.877 E22.25557
G1 X65.853 Y127.556 E22.32272
G1 X65.98 Y127.073 E22.34764
G1 X66.608 Y124.566 E22.47658
G1 X67.148 Y122.116 E22.60174
G1 X67.618 Y119.649 E22.72703
G1 X68.023 Y117.153 E22.85319
G1 X68.355 Y114.654 E22.97896
G1 X68.62 Y112.122 E23.10597
G1 X68.811 Y109.593 E23.2325
G1 X68.948 Y106.546 E23.38467
G1 X68.967 Y105.854 E23.41921
G1 X69.032 Y104.935 E23.46517
G1 X69.177 Y104.026 E23.5111
G1 X69.4 Y103.133 E23.55702
G1 X69.7 Y102.262 E23.60298
G1 X69.992 Y101.586 E23.63971
G1 X70.412 Y100.767 E23.68563
G1 X70.902 Y99.987 E23.73159
G1 X71.458 Y99.253 E23.77753
G1 X72.075 Y98.57 E23.82345
G1 X72.749 Y97.943 E23.86937
G1 X73.475 Y97.377 E23.9153
G1 X74.247 Y96.876 E23.96122
G1 X75.155 Y96.398 E24.01241
G1 X75.398 Y96.285 E24.02578
G1 X76.249 Y95.934 E24.07171
G1 X77.127 Y95.657 E24.11764
G1 X78.026 Y95.458 E24.16358
G1 X79.252 Y95.315 E24.22516
G1 X79.922 Y95.276 E24.25864
G1 X80.655 Y95.259 E24.29522
G1 X81.457 Y95.268 E24.33523
G1 X84.088 Y95.259 E24.46649
G1 X86.634 Y95.18 E24.59358
G1 X89.141 Y95.031 E24.71887
G1 X91.65 Y94.81 E24.84453
G1 X94.169 Y94.517 E24.97105
G1 X96.693 Y94.15 E25.0983
G1 X99.144 Y93.722 E25.22243
G1 X101.643 Y93.213 E25.34966
G1 X104.105 Y92.64 E25.47578
G1 X106.532 Y92.001 E25.60099
G1 X109.003 Y91.274 E25.72949
G1 X111.383 Y90.501 E25.85434
G1 X113.747 Y89.659 E25.97953
G1 X116.111 Y88.74 E26.10607
G1 X118.417 Y87.771 E26.23086
G1 X119.505 Y87.296 E26.29009
G1 X120.365 Y86.965 E26.33607
G1 X121.249 Y86.71 E26.38197
G1 X122.152 Y86.532 E26.42788
G1 X123.068 Y86.434 E26.47384
G1 X123.989 Y86.415 E26.5198
G1 X124.204 Y86.42 E26.53053
G1 X125.123 Y86.481 E26.57648
G0 F6000 X125.15 Y86.082
G1 F1200 X126.077 Y86.223 E26.62326
G1 X126.989 Y86.443 E26.67007
G1 X128.214 Y86.874 E26.73486
G1 X128.438 Y86.968 E26.74698
G1 X129.287 Y87.367 E26.79378
G1 X129.769 Y87.636 E26.82132
G1 X130.238 Y87.912 E26.84846
G1 X132.529 Y89.231 E26.98035
G1 X134.742 Y90.422 E27.10573
G1 X136.991 Y91.552 E27.2313
G1 X139.249 Y92.606 E27.35562
G1 X141.598 Y93.625 E27.48337
G1 X143.933 Y94.56 E27.60885
G1 X146.271 Y95.418 E27.7331
G1 X148.679 Y96.226 E27.85982
G1 X151.786 Y97.167 E28.02178
G1 X152.96 Y97.542 E28.08327
G1 X153.369 Y97.681 E28.10482
G1 X154.671 Y98.154 E28.17393
G1 X154.967 Y98.267 E28.18974
G1 X155.444 Y98.456 E28.21534
G1 X155.792 Y98.6 E28.23413
G1 X156.988 Y99.122 E28.29923
G1 X157.678 Y99.452 E28.33739
G1 X158.433 Y99.849 E28.37995
G1 X159.496 Y100.43 E28.44038
G1 X159.905 Y100.665 E28.46392
G1 X161.124 Y101.404 E28.53504
G1 X161.928 Y101.914 E28.58254
G1 X162.322 Y102.176 E28.60614
G1 X163.03 Y102.669 E28.64919
G1 X163.41 Y102.946 E28.67265
G1 X163.83 Y103.266 E28.69899
G1 X164.13 Y103.502 E28.71803
G1 X164.449 Y103.763 E28.7386
G1 X164.961 Y104.21 E28.7725
G1 X165.55 Y104.756 E28.81257
G1 X166.269 Y105.487 E28.86373
G1 X166.516 Y105.763 E28.88221
G1 X167.039 Y106.394 E28.92309
G1 X167.192 Y106.593 E28.93562
G1 X167.735 Y107.365 E28.98271
G1 X167.906 Y107.632 E28.99853
G1 X168.378 Y108.443 E29.04534
G1 X168.748 Y109.219 E29.08823
G1 X168.945 Y109.677 E29.1131
G1 X169.278 Y110.553 E29.15986
G1 X169.618 Y111.823 E29.22545
G1 X169.658 Y112.019 E29.23543
G1 X169.806 Y112.946 E29.28226
G1 X169.866 Y113.631 E29.31657
G1 X169.894 Y114.568 E29.36334
G1 X169.847 Y115.45 E29.4074
G1 X169.805 Y115.899 E29.4299
G1 X169.678 Y116.829 E29.47673
G1 X169.458 Y117.797 E29.52626
G1 X169.377 Y118.091 E29.54147
G1 X169.089 Y118.983 E29.58823
G1 X168.868 Y119.536 E29.61795
G1 X168.73 Y119.855 E29.63529
G1 X168.105 Y121.082 E29.70398
G1 X167.929 Y121.38 E29.72125
G1 X167.313 Y122.312 E29.77699
G1 X167.1 Y122.601 E29.7949
G1 X166.612 Y123.216 E29.83407
G1 X166.239 Y123.653 E29.86273
G1 X165.808 Y124.129 E29.89477
G1 X165.45 Y124.502 E29.92056
G1 X164.994 Y124.951 E29.95249
G1 X164.251 Y125.64 E30.00304
G1 X163.978 Y125.884 E30.02131
G1 X163.496 Y126.302 E30.05314
G1 X163.213 Y126.539 E30.07156
G1 X162.153 Y127.392 E30.13944
G1 X160.926 Y128.324 E30.21631
G1 X160.656 Y128.522 E30.23301
